icons/square/48/eidete.svg

<?xml version="1.0" encoding="UTF-8" standalone="no"?>
<!-- Created with Inkscape (http://www.inkscape.org/) -->

<svg
   xmlns:dc="http://purl.org/dc/elements/1.1/"
   xmlns:cc="http://creativecommons.org/ns#"
   xmlns:rdf="http://www.w3.org/1999/02/22-rdf-syntax-ns#"
   xmlns:svg="http://www.w3.org/2000/svg"
   xmlns="http://www.w3.org/2000/svg"
   xmlns:xlink="http://www.w3.org/1999/xlink"
   xmlns:sodipodi="http://sodipodi.sourceforge.net/DTD/sodipodi-0.dtd"
   xmlns:inkscape="http://www.inkscape.org/namespaces/inkscape"
   width="48"
   height="48"
   id="svg2"
   version="1.1"
   inkscape:version="0.48.5 r10040"
   sodipodi:docname="eidete.svg"
   inkscape:export-filename="/home/me4oslav/Downloads/gimp-new-square.png"
   inkscape:export-xdpi="720"
   inkscape:export-ydpi="720">
  <defs
     id="defs4">
    <linearGradient
       id="linearGradient4069">
      <stop
         style="stop-color:#e7c252;stop-opacity:1;"
         offset="0"
         id="stop4071" />
      <stop
         style="stop-color:#f5cf5d;stop-opacity:1;"
         offset="1"
         id="stop4073" />
    </linearGradient>
    <linearGradient
       y2="1"
       x2="0"
       y1="47"
       gradientTransform="translate(-46.000003,-1052.3642)"
       gradientUnits="userSpaceOnUse"
       id="1"
       xlink:href="#0" />
    <linearGradient
       id="0">
      <stop
         id="stop3004"
         stop-opacity="0" />
      <stop
         id="stop3006"
         offset="1" />
    </linearGradient>
    <linearGradient
       gradientUnits="userSpaceOnUse"
       x2="0"
       y2="40"
       y1="280"
       xlink:href="#2"
       id="3"
       gradientTransform="matrix(.175 0 0 .175 302.79999 215.99997)" />
    <linearGradient
       id="2">
      <stop
         id="stop73"
         stop-color="#151515" />
      <stop
         id="stop75"
         stop-color="#222"
         offset="1" />
    </linearGradient>
    <linearGradient
       gradientUnits="userSpaceOnUse"
       x2="0"
       y2="90"
       y1="230"
       xlink:href="#2"
       id="1-9"
       gradientTransform="matrix(.375 0 0 .375 298 16)" />
    <linearGradient
       gradientUnits="userSpaceOnUse"
       x2="0"
       y2="90"
       y1="230"
       xlink:href="#2"
       id="0-3"
       gradientTransform="matrix(.25 0 0 .25 299.99999 131.99999)" />
    <clipPath
       id="clipPath66">
      <rect
         id="rect68"
         color="#bebebe"
         height="20"
         rx="4"
         y="78"
         x="434"
         width="20" />
    </clipPath>
    <clipPath
       id="clipPath62">
      <rect
         id="rect64"
         color="#bebebe"
         height="22"
         rx="4"
         y="77"
         x="433"
         width="22" />
    </clipPath>
    <clipPath
       id="clipPath58">
      <rect
         id="rect60"
         color="#bebebe"
         height="22"
         rx="5"
         y="77"
         x="433"
         width="22" />
    </clipPath>
    <clipPath
       id="clipPath54">
      <rect
         id="rect56"
         color="#bebebe"
         height="30"
         rx="6"
         y="29"
         x="433"
         width="30" />
    </clipPath>
    <clipPath
       id="clipPath50">
      <rect
         style="fill:url(#0-3)"
         id="rect52"
         color="#bebebe"
         fill="url(#0)"
         transform="matrix(0 -1 1 0 0 0)"
         height="60"
         rx="12.5"
         y="142"
         x="306"
         width="60" />
    </clipPath>
    <clipPath
       id="clipPath46">
      <rect
         style="fill:url(#1-9)"
         id="rect48"
         color="#bebebe"
         fill="url(#1)"
         height="90"
         rx="18.75"
         y="31"
         x="307"
         width="90" />
    </clipPath>
    <clipPath
       id="clipPath42">
      <rect
         id="rect44"
         color="#bebebe"
         fill="#6d6d6d"
         opacity="0.2"
         height="30"
         rx="4"
         y="29"
         x="433"
         width="30" />
    </clipPath>
    <clipPath
       id="clipPath38">
      <rect
         id="rect40"
         color="#bebebe"
         fill="#6d6d6d"
         opacity="0.2"
         height="22"
         rx="3"
         y="77"
         x="433"
         width="22" />
    </clipPath>
    <clipPath
       id="clipPath34">
      <path
         id="path36"
         d="m 144,70 c -49.705627,0 -90,40.29437 -90,90 0,49.70563 40.294373,90 90,90 49.70563,0 90,-40.29437 90,-90 0,-49.70563 -40.29437,-90 -90,-90 z m 0,32.1875 c 32.03251,0 58,25.96748 58,58 0,32.03252 -25.96749,58 -58,58 -32.03251,0 -58,-25.96748 -58,-58 0,-32.03252 25.96749,-58 58,-58 z" />
    </clipPath>
    <clipPath
       id="clipPath30">
      <rect
         id="rect32"
         color="#bebebe"
         height="16"
         rx="3"
         y="116"
         x="432"
         width="16" />
    </clipPath>
    <clipPath
       id="clipPath26">
      <path
         id="path28"
         d="m 145,215 c 33.13708,0 60,-26.86292 60,-60 0,-33.13708 -26.86292,-60 -60,-60 -33.13708,0 -60,26.86292 -60,60 0,12.50698 3.8285,24.10633 10.375,33.71875 L 89,211 111.28125,204.625 C 120.89367,211.1715 132.49302,215 145,215 z" />
    </clipPath>
    <clipPath
       id="clipPath22">
      <path
         id="path24"
         d="m 152,204 a 8,8 0 1 1 -16,0 8,8 0 1 1 16,0 z" />
    </clipPath>
    <clipPath
       id="clipPath18">
      <path
         id="path20"
         d="m 98.03125,23.191212 c -41.492132,1.05238 -74.84375,35.06824 -74.84375,76.812498 0,42.40687 34.405632,76.8125 76.8125,76.8125 42.40687,0 76.8125,-34.40563 76.8125,-76.8125 0,-42.406866 -34.40563,-76.812498 -76.8125,-76.812498 -0.662607,0 -1.310145,-0.0167 -1.96875,0 z M 100,50.659962 c 27.24464,0 49.34375,22.099114 49.34375,49.343748 -1e-5,27.24464 -22.09911,49.34375 -49.34375,49.34375 -27.244636,-1e-5 -49.34375,-22.09911 -49.34375,-49.34375 0,-27.244634 22.099114,-49.343748 49.34375,-49.343748 z" />
    </clipPath>
    <clipPath
       id="clipPath14">
      <rect
         id="rect16"
         color="#bebebe"
         fill="#6d6d6d"
         opacity="0.2"
         height="16"
         rx="2"
         y="116"
         x="432"
         width="16" />
    </clipPath>
    <clipPath
       id="clipPath10">
      <rect
         id="rect12"
         color="#bebebe"
         fill="#986767"
         height="240"
         rx="50"
         y="36"
         x="24"
         width="240" />
    </clipPath>
    <clipPath
       id="clipPath6">
      <rect
         id="rect8"
         color="#bebebe"
         fill="url(#3)"
         transform="rotate(90)"
         height="42"
         rx="9"
         y="223"
         x="307"
         width="42" />
    </clipPath>
    <linearGradient
       inkscape:collect="always"
       xlink:href="#linearGradient3672"
       id="linearGradient4109"
       gradientUnits="userSpaceOnUse"
       x1="71.655853"
       y1="62.659943"
       x2="87.0625"
       y2="62.659943" />
    <linearGradient
       id="linearGradient3672">
      <stop
         id="stop3674"
         style="stop-color:#ffffff;stop-opacity:0"
         offset="0" />
      <stop
         id="stop3676"
         style="stop-color:#ffffff;stop-opacity:0"
         offset="0.30000001" />
      <stop
         id="stop3678"
         style="stop-color:#ffffff;stop-opacity:0.61240309"
         offset="0.5" />
      <stop
         id="stop3680"
         style="stop-color:#ffffff;stop-opacity:0"
         offset="0.75264549" />
      <stop
         id="stop3682"
         style="stop-color:#ffffff;stop-opacity:0"
         offset="1" />
    </linearGradient>
    <linearGradient
       id="linearGradient3216">
      <stop
         id="stop3218"
         offset="0"
         style="stop-color:#6b6b6b;stop-opacity:1;" />
      <stop
         id="stop3220"
         offset="1"
         style="stop-color:#000000;stop-opacity:1;" />
    </linearGradient>
    <linearGradient
       id="linearGradient10287">
      <stop
         id="stop10289"
         offset="0"
         style="stop-color:#e1e0e0;stop-opacity:1;" />
      <stop
         style="stop-color:#3d3d3d;stop-opacity:1;"
         offset="0.5"
         id="stop4127" />
      <stop
         id="stop10291"
         offset="1"
         style="stop-color:#828282;stop-opacity:1;" />
    </linearGradient>
    <linearGradient
       id="linearGradient10279">
      <stop
         id="stop10281"
         offset="0"
         style="stop-color:#19140c;stop-opacity:1;" />
      <stop
         style="stop-color:#795d3b;stop-opacity:1;"
         offset="0.5"
         id="stop4148" />
      <stop
         id="stop10283"
         offset="1"
         style="stop-color:#9c794c;stop-opacity:1;" />
    </linearGradient>
    <linearGradient
       inkscape:collect="always"
       xlink:href="#linearGradient4990"
       id="linearGradient4092"
       gradientUnits="userSpaceOnUse"
       gradientTransform="matrix(0.1338217,-0.05496597,0.0513395,0.14327442,12.593293,0.203942)"
       x1="202.59236"
       y1="424.37561"
       x2="188.0419"
       y2="371.45074" />
    <linearGradient
       id="linearGradient4990">
      <stop
         style="stop-color:#808080;stop-opacity:1;"
         offset="0"
         id="stop4992" />
      <stop
         style="stop-color:#000000;stop-opacity:0;"
         offset="1"
         id="stop4994" />
    </linearGradient>
    <linearGradient
       id="linearGradient4121">
      <stop
         style="stop-color:#2a2115;stop-opacity:1;"
         offset="0"
         id="stop4123" />
      <stop
         style="stop-color:#653c2e;stop-opacity:1;"
         offset="1"
         id="stop4125" />
    </linearGradient>
    <linearGradient
       id="linearGradient3387">
      <stop
         id="stop3389"
         offset="0"
         style="stop-color:#6b6b6b;stop-opacity:1;" />
      <stop
         id="stop3391"
         offset="1"
         style="stop-color:#000000;stop-opacity:1;" />
    </linearGradient>
    <linearGradient
       id="linearGradient3394">
      <stop
         id="stop3396"
         offset="0"
         style="stop-color:#6b6b6b;stop-opacity:1;" />
      <stop
         id="stop3398"
         offset="1"
         style="stop-color:#000000;stop-opacity:1;" />
    </linearGradient>
    <linearGradient
       id="linearGradient3200">
      <stop
         id="stop3202"
         offset="0"
         style="stop-color:#fefefe;stop-opacity:1;" />
      <stop
         id="stop3204"
         offset="1"
         style="stop-color:#e2e2e2;stop-opacity:1;" />
    </linearGradient>
    <linearGradient
       id="linearGradient3407">
      <stop
         id="stop3409"
         offset="0"
         style="stop-color:#fefefe;stop-opacity:1;" />
      <stop
         id="stop3411"
         offset="1"
         style="stop-color:#e2e2e2;stop-opacity:1;" />
    </linearGradient>
    <linearGradient
       id="linearGradient3418">
      <stop
         id="stop3420"
         offset="0"
         style="stop-color:#6b6b6b;stop-opacity:1;" />
      <stop
         id="stop3422"
         offset="1"
         style="stop-color:#000000;stop-opacity:1;" />
    </linearGradient>
    <linearGradient
       inkscape:collect="always"
       xlink:href="#linearGradient3176"
       id="linearGradient4107"
       gradientUnits="userSpaceOnUse"
       gradientTransform="matrix(0.17036306,0,0,0.17036306,-15.617277,-18.085899)"
       x1="325.53677"
       y1="295.21344"
       x2="441.54199"
       y2="414.01898" />
    <linearGradient
       id="linearGradient3176">
      <stop
         id="stop3178"
         offset="0"
         style="stop-color:#a77341;stop-opacity:1;" />
      <stop
         id="stop3180"
         offset="1"
         style="stop-color:#3d3024;stop-opacity:1;" />
    </linearGradient>
    <linearGradient
       inkscape:collect="always"
       xlink:href="#linearGradient4069"
       id="linearGradient4075"
       x1="24"
       y1="1051.36"
       x2="24"
       y2="1005.36"
       gradientUnits="userSpaceOnUse" />
  </defs>
  <sodipodi:namedview
     id="base"
     pagecolor="#ffffff"
     bordercolor="#666666"
     borderopacity="1.0"
     inkscape:pageopacity="0.0"
     inkscape:pageshadow="2"
     inkscape:zoom="9.1895868"
     inkscape:cx="31.819201"
     inkscape:cy="26.445135"
     inkscape:document-units="px"
     inkscape:current-layer="layer1"
     showgrid="true"
     inkscape:window-width="1920"
     inkscape:window-height="1023"
     inkscape:window-x="0"
     inkscape:window-y="28"
     inkscape:window-maximized="1"
     showguides="true"
     inkscape:guide-bbox="true">
    <inkscape:grid
       type="xygrid"
       id="grid3933"
       empspacing="5"
       visible="true"
       enabled="true"
       snapvisiblegridlinesonly="true" />
  </sodipodi:namedview>
  <metadata
     id="metadata7">
    <rdf:RDF>
      <cc:Work
         rdf:about="">
        <dc:format>image/svg+xml</dc:format>
        <dc:type
           rdf:resource="http://purl.org/dc/dcmitype/StillImage" />
        <dc:title></dc:title>
      </cc:Work>
    </rdf:RDF>
  </metadata>
  <g
     inkscape:groupmode="layer"
     id="layer3"
     inkscape:label="Shadow"
     sodipodi:insensitive="true">
    <g
       transform="translate(0,-1004.3622)"
       id="g3804">
      <path
         id="path3806"
         d="m 5,1006.3622 c -2.216,0 -4,1.784 -4,4 l 0,37.25 c 0,2.216 1.784,4 4,4 l 38,0 c 2.216,0 4,-1.784 4,-4 l 0,-37.25 c 0,-2.216 -1.784,-4 -4,-4 l -38,0 z m -4,41.5 0,0.5 c 0,2.216 1.784,4 4,4 l 38,0 c 2.216,0 4,-1.784 4,-4 l 0,-0.5 c 0,2.216 -1.784,4 -4,4 l -38,0 c -2.216,0 -4,-1.784 -4,-4 z"
         inkscape:connector-curvature="0"
         style="opacity:0.02000002" />
      <path
         id="path3808"
         d="m 1,1047.6122 0,0.25 c 0,2.216 1.784,4 4,4 l 38,0 c 2.216,0 4,-1.784 4,-4 l 0,-0.25 c 0,2.216 -1.784,4 -4,4 l -38,0 c -2.216,0 -4,-1.784 -4,-4 z"
         inkscape:connector-curvature="0"
         style="opacity:0.05" />
      <rect
         id="rect3810"
         rx="4"
         y="1005.61"
         x="1"
         height="46"
         width="46"
         style="opacity:0.1" />
    </g>
  </g>
  <g
     inkscape:label="Background"
     inkscape:groupmode="layer"
     id="layer1"
     transform="translate(0,-1004.3622)">
    <g
       id="g2987"
       transform="translate(0,0.00221465)"
       style="fill:url(#linearGradient4075);fill-opacity:1">
      <rect
         id="rect2989"
         width="46"
         height="46"
         x="1"
         y="1005.36"
         rx="4"
         style="fill:url(#linearGradient4075);fill-opacity:1" />
    </g>
    <g
       id="g3790">
      <path
         id="path3792"
         d="m 1,1043.3622 0,4 c 0,2.216 1.784,4 4,4 l 38,0 c 2.216,0 4,-1.784 4,-4 l 0,-4 c 0,2.216 -1.784,4 -4,4 l -38,0 c -2.216,0 -4,-1.784 -4,-4 z"
         inkscape:connector-curvature="0"
         style="opacity:0.1" />
    </g>
  </g>
  <g
     inkscape:groupmode="layer"
     id="layer2"
     inkscape:label="Symbol">
    <path
       transform="matrix(1,0,0,1.0434783,-1,0.3913029)"
       d="m 37,25.5 a 12,11.5 0 1 1 -24,0 12,11.5 0 1 1 24,0 z"
       sodipodi:ry="11.5"
       sodipodi:rx="12"
       sodipodi:cy="25.5"
       sodipodi:cx="25"
       id="path3944"
       style="opacity:0.1;fill:#000000;fill-opacity:1;stroke:none"
       sodipodi:type="arc" />
    <rect
       ry="2"
       rx="2"
       y="7"
       x="23"
       height="4"
       width="18"
       id="rect3946"
       style="opacity:0.1;fill:#000000;fill-opacity:1;stroke:none" />
    <path
       d="M 11,9 A 2,2 0 1 1 7,9 2,2 0 1 1 11,9 z"
       sodipodi:ry="2"
       sodipodi:rx="2"
       sodipodi:cy="9"
       sodipodi:cx="9"
       id="path3948"
       style="opacity:0.1;fill:#000000;fill-opacity:1;stroke:none"
       sodipodi:type="arc" />
    <path
       sodipodi:type="arc"
       style="fill:#eb5523;fill-opacity:1;stroke:none"
       id="path3126"
       sodipodi:cx="9"
       sodipodi:cy="9"
       sodipodi:rx="2"
       sodipodi:ry="2"
       d="M 11,9 A 2,2 0 1 1 7,9 2,2 0 1 1 11,9 z"
       transform="translate(0,-1)" />
    <rect
       style="fill:#4b8fc3;fill-opacity:1;stroke:none"
       id="rect3896"
       width="18"
       height="4"
       x="23"
       y="6"
       rx="2"
       ry="2" />
    <path
       sodipodi:type="arc"
       style="fill:#d2dde1;fill-opacity:1;stroke:none"
       id="path3898"
       sodipodi:cx="25"
       sodipodi:cy="25.5"
       sodipodi:rx="12"
       sodipodi:ry="11.5"
       d="m 37,25.5 a 12,11.5 0 1 1 -24,0 12,11.5 0 1 1 24,0 z"
       transform="matrix(1,0,0,1.0434783,-1,-0.6086971)" />
    <path
       transform="matrix(0.75,0,0,0.78260873,5.25,6.0434756)"
       d="m 37,25.5 a 12,11.5 0 1 1 -24,0 12,11.5 0 1 1 24,0 z"
       sodipodi:ry="11.5"
       sodipodi:rx="12"
       sodipodi:cy="25.5"
       sodipodi:cx="25"
       id="path3919"
       style="fill:#493762;fill-opacity:1;stroke:none"
       sodipodi:type="arc" />
    <path
       sodipodi:type="arc"
       style="fill:#4ba8db;fill-opacity:1;stroke:none"
       id="path3921"
       sodipodi:cx="25"
       sodipodi:cy="25.5"
       sodipodi:rx="12"
       sodipodi:ry="11.5"
       d="m 37,25.5 a 12,11.5 0 1 1 -24,0 12,11.5 0 1 1 24,0 z"
       transform="matrix(0.58333331,0,0,0.60869565,9.416667,10.47826)" />
    <path
       sodipodi:type="arc"
       style="fill:#00ccff;fill-opacity:1;stroke:none"
       id="path3930"
       sodipodi:cx="21"
       sodipodi:cy="24.5"
       sodipodi:rx="1"
       sodipodi:ry="1.5"
       d="m 22,24.5 a 1,1.5 0 1 1 -2,0 1,1.5 0 1 1 2,0 z"
       transform="matrix(1.5,0,0,1,-9.5,0)" />
    <path
       transform="matrix(1,0,0,0.66666667,5,11.666667)"
       d="m 22,24.5 a 1,1.5 0 1 1 -2,0 1,1.5 0 1 1 2,0 z"
       sodipodi:ry="1.5"
       sodipodi:rx="1"
       sodipodi:cy="24.5"
       sodipodi:cx="21"
       id="path3932"
       style="fill:#00ccff;fill-opacity:1;stroke:none"
       sodipodi:type="arc" />
    <path
       style="opacity:0.15;fill:#000000;fill-opacity:1;stroke:none"
       d="m 24,19 c -3.865993,0 -7,3.134007 -7,7 0,2.174621 1.006769,4.122347 2.5625,5.40625 L 28.969,21.065 C 27.698771,19.770873 25.956606,19 24,19 z"
       id="path3925"
       inkscape:connector-curvature="0"
       sodipodi:nodetypes="ssccs" />
    <path
       style="fill:#000000;fill-opacity:1;stroke:none;opacity:0.15"
       d="M 9 6 C 7.8954305 6 7 6.8954305 7 8 C 7 8.172589 7.0213958 8.3402409 7.0625 8.5 C 7.2844627 7.6373007 8.0680195 7 9 7 C 9.9319805 7 10.715537 7.6373007 10.9375 8.5 C 10.978604 8.3402409 11 8.172589 11 8 C 11 6.8954305 10.104569 6 9 6 z "
       id="path3934" />
    <path
       style="fill:#000000;fill-opacity:1;stroke:none;opacity:0.15"
       d="M 25 6 C 23.892 6 23 6.892 23 8 C 23 8.173125 23.021524 8.3400006 23.0625 8.5 C 23.28377 7.6360033 24.065125 7 25 7 L 39 7 C 39.934875 7 40.71623 7.6360033 40.9375 8.5 C 40.978476 8.3400006 41 8.173125 41 8 C 41 6.892 40.108 6 39 6 L 25 6 z "
       id="rect3939" />
  </g>
</svg>

<?xml version="1.0" encoding="UTF-8"?>
<svg width="48" height="48" version="1.1" xmlns="http://www.w3.org/2000/svg" xmlns:cc="http://creativecommons.org/ns#" xmlns:dc="http://purl.org/dc/elements/1.1/" xmlns:rdf="http://www.w3.org/1999/02/22-rdf-syntax-ns#" xmlns:xlink="http://www.w3.org/1999/xlink">
 <defs>
  <linearGradient id="linearGradient4075" x1="24" x2="24" y1="1051.4" y2="1005.4" gradientUnits="userSpaceOnUse">
   <stop stop-color="#e7c252" offset="0"/>
   <stop stop-color="#f5cf5d" offset="1"/>
  </linearGradient>
 </defs>
 <metadata>
  <rdf:RDF>
   <cc:Work rdf:about="">
    <dc:format>image/svg+xml</dc:format>
    <dc:type rdf:resource="http://purl.org/dc/dcmitype/StillImage"/>
    <dc:title/>
   </cc:Work>
  </rdf:RDF>
 </metadata>
 <g transform="translate(0 -1004.4)">
  <path d="m5 1006.4c-2.216 0-4 1.784-4 4v37.25c0 2.216 1.784 4 4 4h38c2.216 0 4-1.784 4-4v-37.25c0-2.216-1.784-4-4-4h-38zm-4 41.5v0.5c0 2.216 1.784 4 4 4h38c2.216 0 4-1.784 4-4v-0.5c0 2.216-1.784 4-4 4h-38c-2.216 0-4-1.784-4-4z" opacity=".02"/>
  <path d="m1 1047.6v0.25c0 2.216 1.784 4 4 4h38c2.216 0 4-1.784 4-4v-0.25c0 2.216-1.784 4-4 4h-38c-2.216 0-4-1.784-4-4z" opacity=".05"/>
  <rect x="1" y="1005.6" width="46" height="46" rx="4" opacity=".1"/>
 </g>
 <g transform="translate(0 -1004.4)">
  <g transform="translate(0 .0022146)" fill="url(#linearGradient4075)">
   <rect x="1" y="1005.4" width="46" height="46" rx="4" fill="url(#linearGradient4075)"/>
  </g>
  <path d="m1 1043.4v4c0 2.216 1.784 4 4 4h38c2.216 0 4-1.784 4-4v-4c0 2.216-1.784 4-4 4h-38c-2.216 0-4-1.784-4-4z" opacity=".1"/>
 </g>
 <g>
  <g>
   <path transform="matrix(1 0 0 1.0435 -1 .3913)" d="m37 25.5a12 11.5 0 1 1 -24 0 12 11.5 0 1 1 24 0z" opacity=".1"/>
   <rect x="23" y="7" width="18" height="4" rx="2" ry="2" opacity=".1"/>
   <path d="m11 9a2 2 0 1 1 -4 0 2 2 0 1 1 4 0z" opacity=".1"/>
  </g>
  <path transform="translate(0,-1)" d="m11 9a2 2 0 1 1 -4 0 2 2 0 1 1 4 0z" fill="#eb5523"/>
  <rect x="23" y="6" width="18" height="4" rx="2" ry="2" fill="#4b8fc3"/>
  <path transform="matrix(1 0 0 1.0435 -1 -.6087)" d="m37 25.5a12 11.5 0 1 1 -24 0 12 11.5 0 1 1 24 0z" fill="#d2dde1"/>
  <path transform="matrix(.75 0 0 .78261 5.25 6.0435)" d="m37 25.5a12 11.5 0 1 1 -24 0 12 11.5 0 1 1 24 0z" fill="#493762"/>
  <path transform="matrix(.58333 0 0 .6087 9.4167 10.478)" d="m37 25.5a12 11.5 0 1 1 -24 0 12 11.5 0 1 1 24 0z" fill="#4ba8db"/>
  <path transform="matrix(1.5,0,0,1,-9.5,0)" d="m22 24.5a1 1.5 0 1 1 -2 0 1 1.5 0 1 1 2 0z" fill="#0cf"/>
  <path transform="matrix(1 0 0 .66667 5 11.667)" d="m22 24.5a1 1.5 0 1 1 -2 0 1 1.5 0 1 1 2 0z" fill="#0cf"/>
  <g>
   <path d="m24 19c-3.866 0-7 3.134-7 7 0 2.1746 1.0068 4.1223 2.5625 5.4062l9.4065-10.341c-1.2702-1.2941-3.0124-2.065-4.969-2.065z" opacity=".15"/>
   <path d="m9 6c-1.1046 0-2 0.89543-2 2 0 0.17259 0.021396 0.34024 0.0625 0.5 0.22196-0.8627 1.0055-1.5 1.9375-1.5s1.7155 0.6373 1.9375 1.5c0.041104-0.15976 0.0625-0.32741 0.0625-0.5 0-1.1046-0.89543-2-2-2z" opacity=".15"/>
   <path d="m25 6c-1.108 0-2 0.892-2 2 0 0.17312 0.021524 0.34 0.0625 0.5 0.22127-0.864 1.0026-1.5 1.9375-1.5h14c0.93488 0 1.7162 0.636 1.9375 1.5 0.040976-0.16 0.0625-0.32688 0.0625-0.5 0-1.108-0.892-2-2-2h-14z" opacity=".15"/>
  </g>
 </g>
</svg>
